build/img/icon-logout.svg

<svg width="26" height="26" viewBox="0 0 26 26" fill="none" xmlns="http://www.w3.org/2000/svg">
<path d="M18.2 2.16797H15.3833C11.9167 2.16797 9.75 4.33464 9.75 7.8013V12.1888H16.5208C16.965 12.1888 17.3333 12.5571 17.3333 13.0013C17.3333 13.4455 16.965 13.8138 16.5208 13.8138H9.75V18.2013C9.75 21.668 11.9167 23.8346 15.3833 23.8346H18.1892C21.6558 23.8346 23.8225 21.668 23.8225 18.2013V7.8013C23.8333 4.33464 21.6667 2.16797 18.2 2.16797Z" fill="#666A72"/>
<path d="M4.9425 12.189L7.185 9.94646C7.3475 9.78396 7.42333 9.57812 7.42333 9.37229C7.42333 9.16646 7.3475 8.94979 7.185 8.79813C6.87083 8.48396 6.35083 8.48396 6.03667 8.79813L2.4075 12.4273C2.09333 12.7415 2.09333 13.2615 2.4075 13.5756L6.03667 17.2048C6.35083 17.519 6.87083 17.519 7.185 17.2048C7.49917 16.8906 7.49917 16.3706 7.185 16.0565L4.9425 13.814H9.7525V12.189H4.9425Z" fill="#666A72"/>
</svg>

<svg width="26" height="26" fill="none" xmlns="http://www.w3.org/2000/svg"><path d="M18.2 2.168h-2.817c-3.466 0-5.633 2.167-5.633 5.633v4.388h6.77c.445 0 .813.368.813.812a.818.818 0 01-.812.813H9.75V18.2c0 3.467 2.167 5.634 5.633 5.634h2.806c3.467 0 5.634-2.167 5.634-5.634V7.8c.01-3.466-2.156-5.633-5.623-5.633z" fill="#666A72"/><path d="M4.942 12.189l2.243-2.243a.804.804 0 00.238-.574.786.786 0 00-.238-.574.817.817 0 00-1.148 0l-3.63 3.63a.817.817 0 000 1.148l3.63 3.629a.817.817 0 001.148 0 .817.817 0 000-1.148l-2.242-2.243h4.81v-1.625h-4.81z" fill="#666A72"/></svg>
